Numix-Light/24x24/status/input-keyboard.svg

<?xml version="1.0" encoding="UTF-8" standalone="no"?>
<svg
   xmlns:dc="http://purl.org/dc/elements/1.1/"
   xmlns:cc="http://creativecommons.org/ns#"
   xmlns:rdf="http://www.w3.org/1999/02/22-rdf-syntax-ns#"
   xmlns:svg="http://www.w3.org/2000/svg"
   xmlns="http://www.w3.org/2000/svg"
   xmlns:sodipodi="http://sodipodi.sourceforge.net/DTD/sodipodi-0.dtd"
   xmlns:inkscape="http://www.inkscape.org/namespaces/inkscape"
   width="24"
   height="24"
   viewBox="0 0 24 24"
   id="svg2"
   version="1.1"
   inkscape:version="0.48.5 r10040"
   sodipodi:docname="input-keyboard.svg">
  <metadata
     id="metadata56">
    <rdf:RDF>
      <cc:Work
         rdf:about="">
        <dc:format>image/svg+xml</dc:format>
        <dc:type
           rdf:resource="http://purl.org/dc/dcmitype/StillImage" />
      </cc:Work>
    </rdf:RDF>
  </metadata>
  <sodipodi:namedview
     pagecolor="#ffffff"
     bordercolor="#666666"
     borderopacity="1"
     objecttolerance="10"
     gridtolerance="10"
     guidetolerance="10"
     inkscape:pageopacity="0"
     inkscape:pageshadow="2"
     inkscape:window-width="1280"
     inkscape:window-height="998"
     id="namedview54"
     showgrid="false"
     inkscape:zoom="19.666667"
     inkscape:cx="11.834093"
     inkscape:cy="8.4220963"
     inkscape:window-x="0"
     inkscape:window-y="0"
     inkscape:window-maximized="1"
     inkscape:current-layer="svg2" />
  <defs
     id="defs4">
    <clipPath
       id="clip1">
      <rect
         width="24"
         height="24"
         id="rect7" />
    </clipPath>
    <filter
       width="100%"
       x="0"
       y="0"
       height="100%"
       filterUnits="objectBoundingBox"
       id="alpha">
      <feColorMatrix
         values="0 0 0 0 1 0 0 0 0 1 0 0 0 0 1 0 0 0 1 0"
         in="SourceGraphic"
         type="matrix"
         id="feColorMatrix10" />
    </filter>
    <g
       style="clip-path:url(#clip1)"
       id="surface6"
       clip-path="url(#clip1)">
      <path
         style="fill:#000"
         d="M 2.414062 6.617188 C 1.65625 6.617188 1.042969 7.257812 1.042969 8.054688 L 1.042969 18.125 C 1.042969 18.921875 1.65625 19.566406 2.414062 19.566406 L 21.585938 19.566406 C 22.34375 19.566406 22.957031 18.921875 22.957031 18.125 L 22.957031 8.054688 C 22.957031 7.257812 22.34375 6.617188 21.585938 6.617188 Z M 5.21875 8.726562 L 18.78125 8.726562 C 20.132812 8.726562 20.871094 9.578125 20.871094 10.910156 L 20.871094 15.273438 C 20.871094 16.476562 19.828125 17.453125 18.78125 17.453125 L 5.21875 17.453125 C 4.285156 17.453125 3.128906 16.570312 3.128906 15.273438 L 3.128906 10.910156 C 3.128906 9.996094 3.835938 8.726562 5.21875 8.726562 Z "
         id="path13" />
      <path
         style="fill:#000"
         d="M 5.152344 10.933594 L 5.152344 12.371094 L 6.523438 12.371094 L 6.523438 10.933594 Z "
         id="path15" />
      <path
         style="fill:#000"
         d="M 7.890625 10.933594 L 7.890625 12.371094 L 9.261719 12.371094 L 9.261719 10.933594 Z "
         id="path17" />
      <path
         style="fill:#000"
         d="M 10.628906 10.933594 L 10.628906 12.371094 L 12 12.371094 L 12 10.933594 Z "
         id="path19" />
      <path
         style="fill:#000"
         d="M 13.371094 10.933594 L 13.371094 12.371094 L 14.738281 12.371094 L 14.738281 10.933594 Z "
         id="path21" />
      <path
         style="fill:#000"
         d="M 5.152344 13.8125 L 5.152344 15.25 L 7.941406 15.25 L 7.941406 13.8125 Z "
         id="path23" />
      <path
         style="fill:#000"
         d="M 9.261719 13.8125 L 9.261719 15.25 L 16.058594 15.25 L 16.058594 13.8125 Z "
         id="path25" />
      <path
         style="fill:#000"
         d="M 16.109375 10.933594 L 16.109375 12.371094 L 17.476562 12.371094 L 17.476562 15.25 L 18.847656 15.25 L 18.847656 10.933594 Z "
         id="path27" />
    </g>
    <mask
       id="mask0">
      <g
         style="filter:url(#alpha)"
         id="g30">
        <rect
           width="24"
           x="0"
           y="0"
           height="24"
           style="fill:#000;fill-opacity:.302"
           id="rect32" />
      </g>
    </mask>
  </defs>
  <path
     style="fill:#353535;fill-opacity:1"
     inkscape:connector-curvature="0"
     id="path38"
     d="m 2.414062,5.527344 c -0.757812,0 -1.371093,0.640625 -1.371093,1.4375 l 0,10.070312 c 0,0.796875 0.613281,1.4375 1.371093,1.4375 l 19.171876,0 c 0.757812,0 1.371093,-0.640625 1.371093,-1.4375 l 0,-10.070312 c 0,-0.796875 -0.613281,-1.4375 -1.371093,-1.4375 z m 2.804688,2.109375 13.5625,0 c 1.351562,0 2.089844,0.847656 2.089844,2.179687 l 0,4.367188 c 0,1.203125 -1.042969,2.179687 -2.089844,2.179687 l -13.5625,0 c -0.933594,0 -2.089844,-0.882812 -2.089844,-2.179687 l 0,-4.367188 c 0,-0.910156 0.707032,-2.179687 2.089844,-2.179687 z" />
  <path
     style="fill:#353535;fill-opacity:1"
     inkscape:connector-curvature="0"
     id="path40"
     d="m 5.152344,9.84375 0,1.4375 1.371094,0 0,-1.4375 z" />
  <path
     style="fill:#353535;fill-opacity:1"
     inkscape:connector-curvature="0"
     id="path42"
     d="m 7.890625,9.84375 0,1.4375 1.371094,0 0,-1.4375 z" />
  <path
     style="fill:#353535;fill-opacity:1"
     inkscape:connector-curvature="0"
     id="path44"
     d="m 10.628906,9.84375 0,1.4375 1.371094,0 0,-1.4375 z" />
  <path
     style="fill:#353535;fill-opacity:1"
     inkscape:connector-curvature="0"
     id="path46"
     d="m 13.371094,9.84375 0,1.4375 1.367187,0 0,-1.4375 z" />
  <path
     style="fill:#353535;fill-opacity:1"
     inkscape:connector-curvature="0"
     id="path48"
     d="m 5.152344,12.71875 0,1.441406 2.789062,0 0,-1.441406 z" />
  <path
     style="fill:#353535;fill-opacity:1"
     inkscape:connector-curvature="0"
     id="path50"
     d="m 9.261719,12.71875 0,1.441406 6.796875,0 0,-1.441406 z" />
  <path
     style="fill:#353535;fill-opacity:1"
     inkscape:connector-curvature="0"
     id="path52"
     d="m 16.109375,9.84375 0,1.4375 1.367187,0 0,2.878906 1.371094,0 0,-4.316406 z" />
</svg>

<svg width="24" xmlns="http://www.w3.org/2000/svg" height="24" viewBox="0 0 24 24" xmlns:xlink="http://www.w3.org/1999/xlink">
<defs>
<clipPath id="clip1">
<rect width="24" height="24"/>
</clipPath>
<filter width="100%" x="0" y="0" height="100%" filterUnits="objectBoundingBox" id="alpha">
<feColorMatrix values="0 0 0 0 1 0 0 0 0 1 0 0 0 0 1 0 0 0 1 0" in="SourceGraphic" type="matrix"/>
</filter>
<g style="clip-path:url(#clip1)" id="surface6">
<path style="fill:#000" d="M 2.414062 6.617188 C 1.65625 6.617188 1.042969 7.257812 1.042969 8.054688 L 1.042969 18.125 C 1.042969 18.921875 1.65625 19.566406 2.414062 19.566406 L 21.585938 19.566406 C 22.34375 19.566406 22.957031 18.921875 22.957031 18.125 L 22.957031 8.054688 C 22.957031 7.257812 22.34375 6.617188 21.585938 6.617188 Z M 5.21875 8.726562 L 18.78125 8.726562 C 20.132812 8.726562 20.871094 9.578125 20.871094 10.910156 L 20.871094 15.273438 C 20.871094 16.476562 19.828125 17.453125 18.78125 17.453125 L 5.21875 17.453125 C 4.285156 17.453125 3.128906 16.570312 3.128906 15.273438 L 3.128906 10.910156 C 3.128906 9.996094 3.835938 8.726562 5.21875 8.726562 Z "/>
<path style="fill:#000" d="M 5.152344 10.933594 L 5.152344 12.371094 L 6.523438 12.371094 L 6.523438 10.933594 Z "/>
<path style="fill:#000" d="M 7.890625 10.933594 L 7.890625 12.371094 L 9.261719 12.371094 L 9.261719 10.933594 Z "/>
<path style="fill:#000" d="M 10.628906 10.933594 L 10.628906 12.371094 L 12 12.371094 L 12 10.933594 Z "/>
<path style="fill:#000" d="M 13.371094 10.933594 L 13.371094 12.371094 L 14.738281 12.371094 L 14.738281 10.933594 Z "/>
<path style="fill:#000" d="M 5.152344 13.8125 L 5.152344 15.25 L 7.941406 15.25 L 7.941406 13.8125 Z "/>
<path style="fill:#000" d="M 9.261719 13.8125 L 9.261719 15.25 L 16.058594 15.25 L 16.058594 13.8125 Z "/>
<path style="fill:#000" d="M 16.109375 10.933594 L 16.109375 12.371094 L 17.476562 12.371094 L 17.476562 15.25 L 18.847656 15.25 L 18.847656 10.933594 Z "/>
</g>
<mask id="mask0">
<g style="filter:url(#alpha)">
<rect width="24" x="0" y="0" height="24" style="fill:#000;fill-opacity:.302"/>
</g>
</mask>
</defs>
<use style="mask:url(#mask0)" xlink:href="#surface6"/>
<g style="fill:#353535">
<path d="M 2.414062 5.527344 C 1.65625 5.527344 1.042969 6.167969 1.042969 6.964844 L 1.042969 17.035156 C 1.042969 17.832031 1.65625 18.472656 2.414062 18.472656 L 21.585938 18.472656 C 22.34375 18.472656 22.957031 17.832031 22.957031 17.035156 L 22.957031 6.964844 C 22.957031 6.167969 22.34375 5.527344 21.585938 5.527344 Z M 5.21875 7.636719 L 18.78125 7.636719 C 20.132812 7.636719 20.871094 8.484375 20.871094 9.816406 L 20.871094 14.183594 C 20.871094 15.386719 19.828125 16.363281 18.78125 16.363281 L 5.21875 16.363281 C 4.285156 16.363281 3.128906 15.480469 3.128906 14.183594 L 3.128906 9.816406 C 3.128906 8.90625 3.835938 7.636719 5.21875 7.636719 Z "/>
<path d="M 5.152344 9.84375 L 5.152344 11.28125 L 6.523438 11.28125 L 6.523438 9.84375 Z "/>
<path d="M 7.890625 9.84375 L 7.890625 11.28125 L 9.261719 11.28125 L 9.261719 9.84375 Z "/>
<path d="M 10.628906 9.84375 L 10.628906 11.28125 L 12 11.28125 L 12 9.84375 Z "/>
<path d="M 13.371094 9.84375 L 13.371094 11.28125 L 14.738281 11.28125 L 14.738281 9.84375 Z "/>
<path d="M 5.152344 12.71875 L 5.152344 14.160156 L 7.941406 14.160156 L 7.941406 12.71875 Z "/>
<path d="M 9.261719 12.71875 L 9.261719 14.160156 L 16.058594 14.160156 L 16.058594 12.71875 Z "/>
<path d="M 16.109375 9.84375 L 16.109375 11.28125 L 17.476562 11.28125 L 17.476562 14.160156 L 18.847656 14.160156 L 18.847656 9.84375 Z "/>
</g>
</svg>
